X: 21171
T: O'ER THE MOOR AMANG THE HEATHER
O: Reel.--Scottish
%R: reel
B: W. Hamilton "Universal Tune-Book" Vol. 2 Glasgow 1846 p.117 #1
S: http://s3-eu-west-1.amazonaws.com/itma.dl.printmaterial/book_pdfs/hamiltonvol2web.pdf
Z: 2016 John Chambers <jc:trillian.mit.edu>
N: The ends of some ties are quite vague in this tune.
M: C|
L: 1/8
K: G
% - - - - - - - - - - - - - - - - - - - - - - - - -
|:\
DGG>A G>AGD | EAA>B A>BAG |\
GABc d(e/f/ g)d | (e/f/g) B>g A>BAG ::\
Ggg>a g>agd | eaa>b a>bag |
bagf d(e/f/ g)d | (e/f/g) Bg A>BAG |\
Ggg>a g>agd | eaa>b a>bag |\
(b/a/)g (a/g/)f d(e/f/) gd | (e/f/g) dB A>BAG |]
% - - - - - - - - - - - - - - - - - - - - - - - - -

%%sep 1 1 500
%%sep 1 1 500

